X: 0623
M: 2/4
L: 1/8
K: G
d2 BG | g2 fe | dDGB & d2x2 | d3 d |\
d2 cB | Ae dc | cDEF & c2x2 | [B2G2] Bc | d2 ef |
ag fe | d3 d | d^c BA | fe d^c | d2 z |]\
[cA] | [B2G2] [B2G2] | [B3G3] [AF]/[BG]/ | [dB][cA] [AF][BG] | [c3A3] [cA] |
.[c2A2] .[c2A2] | .[c3A3] [BG]/[cA]/ | [ec][dB] [BG][cA] | [d3B3] \
|: [dB] | [e3c3] [ec] | [f3A3] [fA] | [g3B3] G | [AE][eG] [dF][AF] |1 [B3G3] :|2 g3 |]

